!!!OTL@@DE: Der Wirthin T&ouml;chterlein
!!!ONB: Nach einer Volksweise des 18. Jahrh.
!!!ODT: 1820
!!!OMD: M&auml;ssig langsam
!!!LYR: Uhland, Ludwig
!!!LDT: 1809
!!!OCL: Erk, Ludwig
!!!GCO: Deutscher Liederschatz, Band 1
**kern	**kern	**kern
*staff3	*staff2	*staff1
*Ipiano	*Ipiano	*Ivox
*clefF4	*clefG2	*clefG2
*k[]	*k[]	*k[]
*C:	*C:	*C:
*M3/4	*M3/4	*M3/4
*MM80	*MM80	*MM80
*^	*	*
4E/ 4G/	4C\	4c/	4c/
*v	*v	*	*
=1	=1	=1
2C\	4.E/ 4.G/ 4.c/	(4.c/
.	8G/ 8c/ 8e/	8e/)
4C\	4c/ 4e/ 4g/	4g/
=2	=2	=2
*	*^	*
2FF/	4.a/ 4.cc/	2c\	(4.cc\
.	8g/ 8b/	.	8b\)
4AA/	4f/ 4a/	4c\	4a/
=3	=3	=3	=3
2C/	4.f/ (4.a/	2c\	(4.a/
.	8e/ 8g/)	.	8g/)
4C/	4e/ 4g/	4c\	4g/
*	*v	*v	*
=4	=4	=4
2C^\ 2G^\	2c/ 2e/	2e^/
4E\ 4G\	4c/ 4g/	4g/
=5	=5	=5
*	*^	*
2D\ 2G\	4.g/	2B\	4.g/
.	8f/	.	8f/
4GG\ 4G\	4f/	4B\	4f/
*	*v	*v	*
=6	=6	=6
2GG/ 2G/	4.B/ 4.d/	4.d/
.	8c/ 8e/	8e/
4GG/ 4G/	4d/ 4f/	4f/
=7	=7	=7
2CC/ 2C/	4.c/ 4.f/ 4.a/	(4.a/
.	8e/ 8g/	8g/)
4CC'/ 4C'/	4c/ 4e/ 4g/	4g/
=8	=8	=8
*^	*	*
2G/	2CC'\ 2C'\	2c/ 2e/	2e/
4E/ 4G/	4C\	4c/	4c/
*v	*v	*	*
=9	=9	=9
2C/	4G/ 4c/ 4e/	4e/
.	4c/ 4e/ 4g/	4g/
4C/	4e/ 4g/ 4cc/	4cc\
=10	=10	=10
2C\	4.g\ 4.cc\ (4.ee\	(4.ee\
.	8f/ 8g/ 8dd/)	8dd\)
4C\ 4c\	4e/ 4g/ 4cc/	4cc\
=11	=11	=11
(4.B/	4.f/ 4.g/ (4.dd/	(4.dd\
8c/)	8e/ 8g/ 8cc/)	8cc\)
4GG/ 4G/	4d/ 4f/ 4b/	4b\
=12	=12	=12
2C\ 2G\	2e/ 2cc/	2cc\
==	==	==
*-	*-	*-
!!!ENC: Craig Stuart Sapp
!!!END: 2004/05/16/
!!!EFL: 043/651
